dji-master/img/icons/instagram.svg

<svg width="17" height="17" viewBox="0 0 17 17" fill="none" xmlns="http://www.w3.org/2000/svg">
<path d="M10.9704 8.21429C10.9704 9.70926 9.75112 10.9286 8.25614 10.9286C6.76116 10.9286 5.54185 9.70926 5.54185 8.21429C5.54185 6.71931 6.76116 5.5 8.25614 5.5C9.75112 5.5 10.9704 6.71931 10.9704 8.21429ZM12.4336 8.21429C12.4336 5.9029 10.5675 4.03683 8.25614 4.03683C5.94475 4.03683 4.07868 5.9029 4.07868 8.21429C4.07868 10.5257 5.94475 12.3917 8.25614 12.3917C10.5675 12.3917 12.4336 10.5257 12.4336 8.21429ZM13.5787 3.86719C13.5787 3.32645 13.144 2.89174 12.6032 2.89174C12.0625 2.89174 11.6278 3.32645 11.6278 3.86719C11.6278 4.40792 12.0625 4.84263 12.6032 4.84263C13.144 4.84263 13.5787 4.40792 13.5787 3.86719ZM8.25614 1.5346C9.44364 1.5346 11.9883 1.43917 13.0592 1.86328C13.4302 2.01172 13.7059 2.19196 13.9922 2.47824C14.2785 2.76451 14.4587 3.04018 14.6071 3.41127C15.0313 4.48214 14.9358 7.02679 14.9358 8.21429C14.9358 9.40179 15.0313 11.9464 14.6071 13.0173C14.4587 13.3884 14.2785 13.6641 13.9922 13.9503C13.7059 14.2366 13.4302 14.4169 13.0592 14.5653C11.9883 14.9894 9.44364 14.894 8.25614 14.894C7.06864 14.894 4.524 14.9894 3.45313 14.5653C3.08203 14.4169 2.80636 14.2366 2.52009 13.9503C2.23382 13.6641 2.05357 13.3884 1.90513 13.0173C1.48103 11.9464 1.57645 9.40179 1.57645 8.21429C1.57645 7.02679 1.48103 4.48214 1.90513 3.41127C2.05357 3.04018 2.23382 2.76451 2.52009 2.47824C2.80636 2.19196 3.08203 2.01172 3.45313 1.86328C4.524 1.43917 7.06864 1.5346 8.25614 1.5346ZM16.399 8.21429C16.399 7.0904 16.4096 5.97712 16.346 4.85324C16.2824 3.54911 15.9855 2.39341 15.0313 1.43917C14.077 0.484932 12.9213 0.188057 11.6172 0.124442C10.4933 0.0608254 9.38002 0.0714278 8.25614 0.0714278C7.13225 0.0714278 6.01897 0.0608254 4.89509 0.124442C3.59096 0.188057 2.43527 0.484932 1.48103 1.43917C0.526786 2.39341 0.229911 3.54911 0.166295 4.85324C0.102679 5.97712 0.113281 7.0904 0.113281 8.21429C0.113281 9.33817 0.102679 10.4515 0.166295 11.5753C0.229911 12.8795 0.526786 14.0352 1.48103 14.9894C2.43527 15.9436 3.59096 16.2405 4.89509 16.3041C6.01897 16.3677 7.13225 16.3571 8.25614 16.3571C9.38002 16.3571 10.4933 16.3677 11.6172 16.3041C12.9213 16.2405 14.077 15.9436 15.0313 14.9894C15.9855 14.0352 16.2824 12.8795 16.346 11.5753C16.4096 10.4515 16.399 9.33817 16.399 8.21429Z" fill="white"/>
</svg>

<svg width="17" height="17" fill="none" xmlns="http://www.w3.org/2000/svg"><path d="M10.97 8.214a2.72 2.72 0 01-2.714 2.715 2.72 2.72 0 01-2.714-2.715A2.72 2.72 0 018.256 5.5a2.72 2.72 0 012.714 2.714zm1.464 0a4.172 4.172 0 00-4.178-4.177A4.172 4.172 0 004.08 8.214a4.172 4.172 0 004.177 4.178 4.172 4.172 0 004.178-4.178zm1.145-4.347a.973.973 0 00-.976-.975.973.973 0 00-.975.975c0 .54.434.976.975.976a.973.973 0 00.976-.976zM8.256 1.535c1.188 0 3.732-.096 4.803.328.371.149.647.329.933.615.286.287.467.562.615.933.424 1.071.329 3.616.329 4.803 0 1.188.095 3.732-.329 4.803a2.602 2.602 0 01-.615.933 2.604 2.604 0 01-.933.615c-1.07.424-3.615.329-4.803.329-1.187 0-3.732.095-4.803-.329a2.603 2.603 0 01-.933-.615 2.603 2.603 0 01-.615-.933c-.424-1.07-.329-3.615-.329-4.803 0-1.187-.095-3.732.33-4.803.148-.37.328-.646.614-.933.286-.286.562-.466.933-.615 1.071-.424 3.616-.328 4.803-.328zm8.143 6.68c0-1.125.01-2.238-.053-3.362-.064-1.304-.36-2.46-1.315-3.414-.954-.954-2.11-1.25-3.414-1.315C10.493.061 9.38.071 8.257.071c-1.125 0-2.238-.01-3.362.053-1.304.064-2.46.36-3.414 1.315C.527 2.393.23 3.55.166 4.853.103 5.977.113 7.09.113 8.214s-.01 2.237.053 3.361c.064 1.305.36 2.46 1.315 3.414.954.955 2.11 1.252 3.414 1.315 1.124.064 2.237.053 3.361.053s2.237.01 3.361-.053c1.304-.063 2.46-.36 3.414-1.315.954-.954 1.251-2.11 1.315-3.414.064-1.123.053-2.237.053-3.36z" fill="#fff"/></svg>
